icon/lg/phoenix.svg

<?xml version="1.0" encoding="UTF-8" standalone="no"?>
<svg viewBox="0 0 256 175" version="1.1" xmlns="http://www.w3.org/2000/svg" xmlns:xlink="http://www.w3.org/1999/xlink" preserveAspectRatio="xMidYMid" height="1em" width="1em">
  <g>
    <path d="M96.135,122.038046 C95.007,121.835046 94.565,121.758046 94.123,121.676046 C79.835,119.019046 70.803,110.373046 66.523,96.7810463 C63.855,88.3090463 68.703,82.0700463 77.589,81.6590463 C84.865,81.3220463 89.845,85.5040463 94.249,90.3700463 C99.926,96.6440463 105.13,103.343046 110.706,109.711046 C118.734,118.878046 128.193,124.781046 141.135,122.959046 C152.74,121.325046 162.853,116.668046 171.653,109.003046 C172.976,107.851046 174.427,106.847046 175.82,105.774046 C175.527,105.429046 175.235,105.084046 174.942,104.739046 C167.555,107.033046 160.021,107.804046 152.323,107.417046 C140.675,106.831046 129.576,104.399046 119.645,98.0040463 C110.583,92.1680463 103.9,84.3480463 100.723,73.9030463 C98.157,65.4650463 103.409,59.5620463 112.153,60.7820463 C115.61,61.2640463 118.52,62.8210463 121.132,65.0290463 C123.259,66.8250463 125.299,68.7290463 127.468,70.4710463 C137.674,78.6720463 151.935,79.1280463 164.89,70.2240463 C143.592,70.1270463 129.102,58.4120463 116.375,43.5650463 C111.394,37.7540463 106.531,31.8390463 101.447,26.1200463 C91.61,15.0530463 80.697,5.3030463 65.754,1.9770463 C46.666,-2.2719537 28.238,0.505046296 10.55,8.6060463 C7.023,10.2210463 3.636,12.0990463 0,15.1250463 C1.8,15.1250463 2.782,15.1470463 3.762,15.1220463 C12.68,14.8920463 19.363,18.8550463 24.183,26.1500463 C27.691,31.4590463 29.344,37.4630463 30.604,43.6400463 C32.474,52.8070463 31.506,62.1530463 32.586,71.3620463 C35.362,95.0370463 47.462,111.558046 69.992,120.018046 C78.254,123.121046 86.728,124.154046 96.135,122.038046 L96.135,122.038046 Z M39.196,14.0410463 C35.636,14.9390463 32.791,13.5020463 29.859,10.5350463 C34.88,9.2840463 39.308,8.7990463 44.066,8.6120463 C43.677,11.7010463 41.855,13.3710463 39.196,14.0410463 Z M155.854,152.292046 C155.544,150.013046 153.597,149.009046 152.066,147.817046 C145.294,142.546046 137.374,140.680046 128.977,140.525046 C123.966,140.433046 119.007,140.059046 114.281,138.302046 C112.115,137.497046 109.692,136.463046 109.747,133.664046 C109.802,130.824046 112.273,130.021046 114.522,129.349046 C116.363,128.799046 118.263,128.448046 120.359,127.958046 C115.035,124.546046 109.834,124.073046 102.904,126.860046 C91.995,131.246046 81.24,130.726046 70.365,126.799046 C64.225,124.583046 58.776,121.104046 53.103,118.023046 L52.948,118.130046 C53.022,118.079046 53.1,118.025046 53.095,118.028046 C52.955,117.600046 52.701,117.589046 52.375,117.828046 C52.524,117.958046 52.672,118.088046 52.82,118.218046 C57.525,125.929046 63.881,132.133046 71.061,137.435046 C84.889,147.645046 99.993,153.734046 117.666,151.032046 C123.374,150.159046 129.125,149.482046 134.882,149.018046 C142.1,148.435046 148.977,150.466046 155.854,152.292046 Z M122.535,41.6730463 C122.153,41.3960463 121.786,40.7010463 121.006,41.4200463 C127.364,50.0200463 135.532,56.3600463 145.367,60.3510463 C161.24,66.7920463 177.35,67.8940463 193.827,62.2100463 C206.619,57.7980463 215.818,62.1090463 220.595,74.5290463 C221.286,60.1130463 212.805,49.6090463 199.296,47.5500463 C191.696,46.3920463 184.679,48.9130463 177.56,50.9780463 C157.749,56.7220463 139.339,53.8860463 122.535,41.6730463 Z M221.272,97.9010463 C223.854,98.1180463 226.434,98.3520463 229.015,98.5780463 C223.183,93.4550463 216.075,93.0490463 208.884,93.4580463 C197.934,94.0800463 190.045,100.395046 182.853,107.940046 C176.516,114.590046 170.79,122.050046 161.333,124.722046 C161.491,125.006046 161.532,125.148046 161.576,125.148046 C162.848,125.167046 164.123,125.227046 165.392,125.169046 C179.127,124.547046 192.066,121.650046 202.359,111.682046 C205.6,108.543046 208.501,105.056046 211.63,101.798046 C214.24,99.0810463 217.405,97.5750463 221.272,97.9010463 Z M189.365,80.8790463 C179.115,81.7750463 170.211,86.0150463 161.848,91.6060463 C155.411,95.9090463 148.527,97.9450463 140.791,96.5990463 C139.43,96.3620463 138.059,96.1850463 136.693,95.9800463 C136.677,96.1710463 136.662,96.3610463 136.646,96.5520463 C137.138,96.8050463 137.613,97.1010463 138.125,97.3040463 C139.414,97.8140463 140.684,98.4280463 142.022,98.7460463 C156.908,102.285046 171.158,100.472046 184.006,92.1730463 C192.104,86.9420463 200.487,85.9510463 209.573,87.3020463 C210.491,87.4390463 211.405,87.6060463 212.327,87.6920463 C213.181,87.7730463 214.073,88.6220463 215.226,87.7030463 C207.283,81.9650463 198.727,80.0610463 189.365,80.8790463 Z M152.731,46.0860463 C158.108,46.2720463 163.461,45.5680463 169.085,42.2270463 C167.438,42.3730463 166.739,42.3700463 166.069,42.5040463 C158.321,44.0480463 151.366,42.3580463 145.171,37.4600463 C142.898,35.6620463 140.587,33.9120463 138.285,32.1510463 C129.159,25.1710463 118.694,22.8360463 107.247,23.0340463 C107.432,23.5970463 107.443,23.9830463 107.642,24.1830463 C120.097,36.7810463 134.512,45.4580463 152.731,46.0860463 Z M242.873,110.724046 C235.165,103.079046 224.821,102.094046 215.249,108.766046 C221.585,109.051046 226.341,111.072046 230.198,115.066046 C231.563,116.479046 232.978,117.866046 234.505,119.098046 C240.337,123.802046 250.224,124.028046 256,119.664046 C249.215,117.016046 249.215,117.016046 242.873,110.724046 Z M166.106,169.269046 C159.332,156.660046 147.947,153.815046 134.795,154.661046 C138.683,155.739046 142.314,157.398046 145.646,159.724046 C148.707,161.861046 151.283,164.507046 153.822,167.217046 C158.853,172.586046 166.705,175.881046 171.908,174.767046 C169.519,173.261046 167.397,171.671046 166.106,169.269046 Z M229.137,98.8380463 C229.139,98.7580463 229.141,98.6770463 229.146,98.5930463 C229.146,98.5920463 229.136,98.6030463 229.126,98.6140463 L229.148,98.5900463 C229.104,98.5860463 229.059,98.5820463 229.015,98.5780463 C229.041,98.6020463 229.069,98.6210463 229.095,98.6450463 C229.109,98.7090463 229.123,98.7740463 229.137,98.8380463 Z M156.23,152.589046 C156.141,152.538046 156.052,152.488046 155.963,152.438046 C155.975,152.495046 155.989,152.551046 156.019,152.597046 C156.037,152.627046 156.157,152.593046 156.23,152.589046 Z M155.963,152.438046 C155.955,152.397046 155.948,152.355046 155.937,152.314046 C155.937,152.314046 155.922,152.333046 155.906,152.352046 L155.937,152.315046 C155.91,152.307046 155.882,152.300046 155.854,152.292046 C155.859,152.326046 155.871,152.354046 155.875,152.389046 C155.905,152.405046 155.934,152.422046 155.963,152.438046 Z" fill="#FD4F00"/>
  </g>
</svg>

<svg width="256" height="175" xmlns="http://www.w3.org/2000/svg" preserveAspectRatio="xMidYMid"><path d="M96.135 122.038c-1.128-.203-1.57-.28-2.012-.362-14.288-2.657-23.32-11.303-27.6-24.895-2.668-8.472 2.18-14.711 11.066-15.122 7.276-.337 12.256 3.845 16.66 8.711 5.677 6.274 10.881 12.973 16.457 19.341 8.028 9.167 17.487 15.07 30.429 13.248 11.605-1.634 21.718-6.291 30.518-13.956 1.323-1.152 2.774-2.156 4.167-3.229l-.878-1.035c-7.387 2.294-14.921 3.065-22.619 2.678-11.648-.586-22.747-3.018-32.678-9.413-9.062-5.836-15.745-13.656-18.922-24.101-2.566-8.438 2.686-14.341 11.43-13.121 3.457.482 6.367 2.039 8.979 4.247 2.127 1.796 4.167 3.7 6.336 5.442 10.206 8.201 24.467 8.657 37.422-.247-21.298-.097-35.788-11.812-48.515-26.659-4.981-5.811-9.844-11.726-14.928-17.445C91.61 15.053 80.697 5.303 65.754 1.977 46.666-2.272 28.238.505 10.55 8.606 7.023 10.221 3.636 12.099 0 15.125c1.8 0 2.782.022 3.762-.003 8.918-.23 15.601 3.733 20.421 11.028 3.508 5.309 5.161 11.313 6.421 17.49 1.87 9.167.902 18.513 1.982 27.722 2.776 23.675 14.876 40.196 37.406 48.656 8.262 3.103 16.736 4.136 26.143 2.02ZM39.196 14.041c-3.56.898-6.405-.539-9.337-3.506 5.021-1.251 9.449-1.736 14.207-1.923-.389 3.089-2.211 4.759-4.87 5.429Zm116.658 138.251c-.31-2.279-2.257-3.283-3.788-4.475-6.772-5.271-14.692-7.137-23.089-7.292-5.011-.092-9.97-.466-14.696-2.223-2.166-.805-4.589-1.839-4.534-4.638.055-2.84 2.526-3.643 4.775-4.315 1.841-.55 3.741-.901 5.837-1.391-5.324-3.412-10.525-3.885-17.455-1.098-10.909 4.386-21.664 3.866-32.539-.061-6.14-2.216-11.589-5.695-17.262-8.776l-.155.107.147-.102c-.14-.428-.394-.439-.72-.2l.445.39c4.705 7.711 11.061 13.915 18.241 19.217 13.828 10.21 28.932 16.299 46.605 13.597a243.203 243.203 0 0 1 17.216-2.014c7.218-.583 14.095 1.448 20.972 3.274ZM122.535 41.673c-.382-.277-.749-.972-1.529-.253 6.358 8.6 14.526 14.94 24.361 18.931 15.873 6.441 31.983 7.543 48.46 1.859 12.792-4.412 21.991-.101 26.768 12.319.691-14.416-7.79-24.92-21.299-26.979-7.6-1.158-14.617 1.363-21.736 3.428-19.811 5.744-38.221 2.908-55.025-9.305Zm98.737 56.228c2.582.217 5.162.451 7.743.677-5.832-5.123-12.94-5.529-20.131-5.12-10.95.622-18.839 6.937-26.031 14.482-6.337 6.65-12.063 14.11-21.52 16.782.158.284.199.426.243.426 1.272.019 2.547.079 3.816.021 13.735-.622 26.674-3.519 36.967-13.487 3.241-3.139 6.142-6.626 9.271-9.884 2.61-2.717 5.775-4.223 9.642-3.897Zm-31.907-17.022c-10.25.896-19.154 5.136-27.517 10.727-6.437 4.303-13.321 6.339-21.057 4.993-1.361-.237-2.732-.414-4.098-.619l-.047.572c.492.253.967.549 1.479.752 1.289.51 2.559 1.124 3.897 1.442 14.886 3.539 29.136 1.726 41.984-6.573 8.098-5.231 16.481-6.222 25.567-4.871.918.137 1.832.304 2.754.39.854.081 1.746.93 2.899.011-7.943-5.738-16.499-7.642-25.861-6.824Zm-36.634-34.793c5.377.186 10.73-.518 16.354-3.859-1.647.146-2.346.143-3.016.277-7.748 1.544-14.703-.146-20.898-5.044-2.273-1.798-4.584-3.548-6.886-5.309-9.126-6.98-19.591-9.315-31.038-9.117.185.563.196.949.395 1.149 12.455 12.598 26.87 21.275 45.089 21.903Zm90.142 64.638c-7.708-7.645-18.052-8.63-27.624-1.958 6.336.285 11.092 2.306 14.949 6.3 1.365 1.413 2.78 2.8 4.307 4.032 5.832 4.704 15.719 4.93 21.495.566-6.785-2.648-6.785-2.648-13.127-8.94Zm-76.767 58.545c-6.774-12.609-18.159-15.454-31.311-14.608 3.888 1.078 7.519 2.737 10.851 5.063 3.061 2.137 5.637 4.783 8.176 7.493 5.031 5.369 12.883 8.664 18.086 7.55-2.389-1.506-4.511-3.096-5.802-5.498Zm63.031-70.431c.002-.08.004-.161.009-.245l-.02.021.022-.024-.133-.012c.026.024.054.043.08.067l.042.193Zm-72.907 53.751a36.032 36.032 0 0 0-.267-.151.463.463 0 0 0 .056.159c.018.03.138-.004.211-.008Zm-.267-.151c-.008-.041-.015-.083-.026-.124l-.031.038.031-.037-.083-.023c.005.034.017.062.021.097l.088.049Z" fill="#FD4F00"/></svg>
